X: 2
T: Billy In The Lowground
R: reel
M: 4/4
L: 1/8
K: Dmin
|:A,G,A,C DD3|DEFGAD3|EFED CG,3|CDEF GG3|
A,G,A,C DD3|DEFGA4|AGFEDFED|CD2DCD3:|
|:A2d2d4|dedc A4|AGA=B c2=BA|GFGAA4|
DDDD FFFF|GFGAA4|AGFEDFED|CD2DCD3:|


Tune 5135	Setting 5135

